usr/share/icons/bigicons-papient-dark/symbolic/status/kpackagekit-updates.svg

<svg xmlns="http://www.w3.org/2000/svg" width="22" height="22">
<style id="current-color-scheme" type="text/css">
.ColorScheme-Text{color:#fcfcfc}.ColorScheme-Background{color:#eff0f1}
</style>
<g id="kpackagekit-updates">
<g id="g4220">
<path id="path4149" d="m7 7-3 3v9h14.1v-9l-3-3h-6Zm.3 1h7.4l2 2H5.3zM9 11h4v5l-1-1-1 1-1-1-1 1z" class="ColorScheme-Text" style="fill:currentColor;fill-rule:evenodd;stroke:none;stroke-width:1px;stroke-linecap:butt;stroke-linejoin:miter;stroke-opacity:1"/>
<path id="path4180" d="M16 3a3 3 0 0 0-3 3 3 3 0 0 0 3 3 3 3 0 0 0 3-3 3 3 0 0 0-3-3" style="opacity:1;fill:#2ecc71;fill-opacity:1;stroke:none"/>
<path id="path4167" d="m16 4 2 2h-1v2h-2V6h-1l1-1z" class="ColorScheme-Background" style="opacity:1;fill:currentColor;fill-opacity:1;stroke:none"/>
</g>
<path id="rect4212" d="M0 0h22v22H0z" style="opacity:1;fill:none;fill-opacity:.59905659;stroke:none"/>
</g>
</svg>

<?xml version="1.0" encoding="UTF-8"?>
<svg xmlns="http://www.w3.org/2000/svg" xmlns:xlink="http://www.w3.org/1999/xlink" xmlns:cc="http://creativecommons.org/ns#" xmlns:dc="http://purl.org/dc/elements/1.1/" xmlns:rdf="http://www.w3.org/1999/02/22-rdf-syntax-ns#" xmlns:inkscape="http://www.inkscape.org/namespaces/inkscape" xmlns:sodipodi="http://sodipodi.sourceforge.net/DTD/sodipodi-0.dtd" width="22" height="22">
    <style type="text/css" id="current-color-scheme">
      .ColorScheme-Text {
        color:#dedede;
      }
      .ColorScheme-Background {
        color:#eff0f1;
      }
      .ColorScheme-Highlight {
        color:#3daee9;
      }
      .ColorScheme-ButtonText {
        color:#dedede;
      }
      </style>
    <g id="kpackagekit-updates" transform="translate(0,2.66454e-15)">
    <g id="g4220">
      <path style="fill:currentColor;fill-rule:evenodd;stroke:none;stroke-width:1px;stroke-linecap:butt;stroke-linejoin:miter;stroke-opacity:1" d="M 7,7 4,10 4,19 9.0996094,19 13,19 l 5.099609,0 0,-9 -3,-3 L 13,7 9.0996094,7 Z m 0.3,1 3.7,0 3.7,0 2,2 -11.4,0 z m 1.7,3 4,0 0,5 -1,-1 -1,1 -1,-1 -1,1 z" id="path4149" inkscape:connector-curvature="0" sodipodi:nodetypes="ccccccccccccccccccccccccc" class="ColorScheme-Text"/>
      <path style="opacity:1;fill:#2ecc71;fill-opacity:1;stroke:none" d="M 16,3 A 3,3 0 0 0 13,6 3,3 0 0 0 16,9 3,3 0 0 0 19,6 3,3 0 0 0 16,3 Z" id="path4180" inkscape:connector-curvature="0"/>
      <path style="opacity:1;fill:currentColor;fill-opacity:1;stroke:none" d="m 16,4 2,2 -1,0 0,2 -2,0 0,-2 -1,0 1,-1 1,-1 z" id="path4167" inkscape:connector-curvature="0" class="ColorScheme-Background"/>
    </g>
    <rect style="opacity:1;fill:none;fill-opacity:0.59905659;stroke:none" id="rect4212" width="22" height="22" x="0" y="-2.6645353e-15"/>
  </g>
</svg>
